svg/logo/nfc_fill.svg

<svg xmlns="http://www.w3.org/2000/svg" width="24" height="24" viewBox="0 0 24 24"><g fill="none"><path d="M24,0 L24,24 L0,24 L0,0 L24,0 Z M12.5935,23.2578 L12.5819,23.2595 L12.5109,23.295 L12.4919,23.2987 L12.4767,23.295 L12.4057,23.2595 C12.3958,23.2564 12.387,23.259 12.3821,23.2649 L12.378,23.2758 L12.3609,23.7031 L12.3659,23.7235 L12.3769,23.7357 L12.4805,23.8097 L12.4953,23.8136 L12.5071,23.8097 L12.6107,23.7357 L12.6233,23.7197 L12.6267,23.7031 L12.6096,23.2758 C12.6076,23.2657 12.601,23.2593 12.5935,23.2578 Z M12.8584,23.1453 L12.8445,23.1473 L12.6598,23.2397 L12.6499,23.2499 L12.6472,23.2611 L12.6651,23.6906 L12.6699,23.7034 L12.6784,23.7105 L12.8793,23.8032 C12.8914,23.8069 12.9022,23.803 12.9078,23.7952 L12.9118,23.7812 L12.8777,23.1665 C12.8753,23.1546 12.8674,23.147 12.8584,23.1453 Z M12.143,23.1473 C12.1332,23.1424 12.1222,23.1453 12.1156,23.1526 L12.1099,23.1665 L12.0758,23.7812 C12.0751,23.7927 12.0828,23.8019 12.0926,23.8046 L12.1083,23.8032 L12.3092,23.7105 L12.3186,23.7024 L12.3225,23.6906 L12.3404,23.2611 L12.3372,23.2485 L12.3278,23.2397 L12.143,23.1473 Z"/><path fill="#09244B" d="M6,3 L11,3 C12.6569,3 14,4.34315 14,6 L14,14.5858 L12.2071,12.7929 C11.8166,12.4024 11.1834,12.4024 10.7929,12.7929 C10.4024,13.1834 10.4024,13.8166 10.7929,14.2071 L14.2929,17.7071 C14.5789,17.9931 15.009,18.0787 15.3827,17.9239 C15.7564,17.7691 16,17.4045 16,17 L16,6 C16,4.87439 15.6281,3.83566 15.0004,3 L18,3 C19.6569,3 21,4.34315 21,6 L21,18 C21,19.6569 19.6569,21 18,21 L13,21 C11.3431,21 10,19.6569 10,18 L10,9.41421 L11.7929,11.2071 C12.1834,11.5976 12.8166,11.5976 13.2071,11.2071 C13.5976,10.8166 13.5976,10.1834 13.2071,9.79289 L9.70711,6.29289 C9.42111,6.0069 8.99099,5.92134 8.61732,6.07612 C8.24364,6.2309 8,6.59554 8,7 L8,18 C8,19.1256 8.37194,20.1643 8.99963,21 L6,21 C4.34315,21 3,19.6569 3,18 L3,6 C3,4.34315 4.34315,3 6,3 Z"/></g></svg>

<svg xmlns="http://www.w3.org/2000/svg" width="24" height="24"><g fill="none"><path d="M24 0v24H0V0zM12.594 23.258l-.012.002-.071.035-.02.004-.014-.004-.071-.036c-.01-.003-.019 0-.024.006l-.004.01-.017.428.005.02.01.013.104.074.015.004.012-.004.104-.074.012-.016.004-.017-.017-.427c-.002-.01-.009-.017-.016-.018m.264-.113-.014.002-.184.093-.01.01-.003.011.018.43.005.012.008.008.201.092c.012.004.023 0 .029-.008l.004-.014-.034-.614c-.003-.012-.01-.02-.02-.022m-.715.002a.023.023 0 0 0-.027.006l-.006.014-.034.614c0 .012.007.02.017.024l.015-.002.201-.093.01-.008.003-.011.018-.43-.003-.012-.01-.01z"/><path fill="#09244B" d="M6 3h5a3 3 0 0 1 3 3v8.586l-1.793-1.793a1 1 0 0 0-1.414 1.414l3.5 3.5A1 1 0 0 0 16 17V6a4.978 4.978 0 0 0-1-3h3a3 3 0 0 1 3 3v12a3 3 0 0 1-3 3h-5a3 3 0 0 1-3-3V9.414l1.793 1.793a1 1 0 0 0 1.414-1.414l-3.5-3.5A1 1 0 0 0 8 7v11c0 1.126.372 2.164 1 3H6a3 3 0 0 1-3-3V6a3 3 0 0 1 3-3"/></g></svg>
